docs/icons/mg.svg

<svg viewBox="0 0 851 586" fill="none" xmlns="http://www.w3.org/2000/svg">
						<path class="path" d="M274.765 118.464L101.097 419.343C88.0179 442.003 95.7797 470.978 118.433 484.06C125.934 488.392 134.127 491.271 142.207 491.248H512.338L567.029 586H142.207C118.028 586.038 93.5158 579.081 71.0695 566.118C3.10821 526.87 -20.1771 439.946 19.0604 371.967L192.728 71.088C231.966 3.10895 318.868 -20.1823 386.829 19.0653C409.888 32.3821 427.804 51.1875 439.88 72.8794L529.801 228.475L530.012 228.353L667.866 467.184C680.945 489.844 709.913 497.608 732.567 484.525C755.22 471.442 762.982 442.468 749.903 419.808L576.235 118.929C563.699 97.2095 536.565 89.1754 514.386 100.067L466.985 17.9463C534.514 -19.0684 619.574 4.50878 658.272 71.5528L831.94 372.432C871.177 440.411 847.892 527.335 779.93 566.583C711.969 605.831 625.067 582.539 585.829 514.56L425.366 236.557L425.302 236.667L354.993 114.856C352.187 110.659 349.345 107.912 345.872 105.132C344.325 103.895 342.371 102.781 340.536 101.736L340.535 101.735C340.172 101.529 339.814 101.325 339.465 101.123C316.811 88.0407 287.844 95.8044 274.765 118.464Z" fill="#fff"></path>
					</svg>

<svg xmlns="http://www.w3.org/2000/svg" viewBox="0 0 851 586" fill="none" xmlns:v="https://vecta.io/nano"><path d="M274.765 118.464L101.097 419.343c-13.079 22.66-5.317 51.635 17.336 64.717 7.501 4.332 15.694 7.211 23.774 7.188h370.131L567.029 586H142.207c-24.179.038-48.691-6.919-71.137-19.882C3.108 526.87-20.177 439.946 19.06 371.967L192.728 71.088c39.238-67.979 126.14-91.27 194.101-52.023 23.059 13.317 40.975 32.122 53.051 53.814l89.921 155.596.211-.122 137.854 238.831c13.079 22.66 42.047 30.424 64.701 17.341s30.415-42.057 17.336-64.717L576.235 118.929c-12.536-21.719-39.67-29.754-61.849-18.862l-47.401-82.121c67.529-37.015 152.589-13.438 191.287 53.607L831.94 372.432c39.237 67.979 15.952 154.903-52.01 194.151s-154.863 15.956-194.101-52.023L425.366 236.557l-.064.11-70.309-121.811c-2.806-4.197-5.648-6.944-9.121-9.724-1.547-1.237-3.501-2.351-5.336-3.396l-.001-.001-1.07-.612c-22.654-13.082-51.621-5.319-64.7 17.341z" fill="#fff"/></svg>
